!!!COM: Frescobaldi, Girolamo
!!!CDT: 1583///-1643
!!!ONM: No. 34
!!!OTL: No. 34: Canzon Quarta &agrave; 4. Due Canti e Due Bassi
!!!OPR: Canzoni da sonare a una, due, tre et quattro, libro primo
!!!PPP: Venezia
!!!PDT: 1634
!!!URL: http://icking-music-archive.org/ByComposer/Frescobaldi.html
!!!ONB: Andrea Friggi, ed.
**kern	**kern	**kern	**kern	**kern
!Basso ad Organo	!Basso Secondo	!Basso Primo	!Canto Secondo	!Canto Primo
*staff5	*staff4	*staff3	*staff2	*staff1
*Icello	*Icello	*Icello	*Ivioln	*Ivioln
*clefC1	*clefF4	*clefF4	*clefG2	*clefG2
*k[]	*k[]	*k[]	*k[]	*k[]
*met(C)	*met(C)	*met(C)	*met(C)	*met(C)
*M4/4	*M4/4	*M4/4	*M4/4	*M4/4
*MM120	*MM120	*MM120	*MM120	*MM120
=1-	=1-	=1-	=1-	=1-
2g\	1r	1r	1r	2g/
4d/	.	.	.	4.dd\
4g\	.	.	.	.
.	.	.	.	8b\
=2	=2	=2	=2	=2
4c/	1r	2r	1r	4ee\
4e/	.	.	.	8dd\L
.	.	.	.	8cc#\J
4d/	.	2D\	.	8dd\L
.	.	.	.	8a\
*clefF4	*	*	*	*
4D\	.	.	.	8dd\
.	.	.	.	8ccn\J
=3	=3	=3	=3	=3
4.G\	1r	4.G\	1r	8b/L
.	.	.	.	8g/J
.	.	.	.	4gg\
8E\	.	8E\	.	.
4A\	.	4A\	.	4ee\
8G\L	.	8G\L	.	4ff\
8F\J	.	8F\J	.	.
=4	=4	=4	=4	=4
4.G\	1r	8G\L	1r	4dd\
.	.	8D\	.	.
.	.	8G\	.	8ee\L
8F\	.	8F\J	.	8ff\J
4E\	.	4E\	.	2gg\
8D/L	.	8D/L	.	.
8C/J	.	8C/J	.	.
=5	=5	=5	=5	=5
4BB/	1r	4BB/	2g/	1gg
4C/	.	4C/	.	.
2GG/	.	2GG/	4.dd\	.
.	.	.	8b\	.
=6	=6	=6	=6	=6
4C/	2r	1r	4ee\	1r
4E\	.	.	8dd\L	.
.	.	.	8cc\J	.
2D\	2D\	.	8dd\L	.
.	.	.	8a\	.
.	.	.	8dd\	.
.	.	.	8cc\J	.
=7	=7	=7	=7	=7
4.G\	4.G\	1r	8b/L	1r
.	.	.	8g/J	.
.	.	.	4gg\	.
8E\	8E\	.	.	.
4A\	4A\	.	4ee\	.
8G\L	8G\L	.	4ff\	.
8F\J	8F\J	.	.	.
=8	=8	=8	=8	=8
4.G\	8G\L	1r	4r	2dd\
.	8D\	.	.	.
.	8G\	.	4dd\	.
8F\	8F\J	.	.	.
2E\	4E\	.	8ee\L	4.gg\
.	.	.	8dd\	.
.	4E\	.	8cc\	.
.	.	.	8b\J	8ee\
=9	=9	=9	=9	=9
4F\	4F\	2r	8a/L	4aa\
.	.	.	8b/J	.
4A\	4A\	.	2cc\	8gg\L
.	.	.	.	8ff\J
2G\	2G\	2G\	.	8gg\L
.	.	.	.	8dd\
.	.	.	4b\	8gg\
.	.	.	.	8ff\J
=10	=10	=10	=10	=10
2C/	2C/	4.c\	2cc\	8ee\L
.	.	.	.	8ff\
.	.	.	.	8gg\
.	.	8A\	.	8aa\J
2D\	2r	4d\	2r	4ff\
.	.	8c\L	.	8ee\L
.	.	8B\J	.	8dd\J
=11	=11	=11	=11	=11
2C/	1r	8c\L	1r	4ee\
.	.	8C\	.	.
.	.	8E\	.	8dd\L
.	.	8F\J	.	8cc\J
2G\	.	4.G\	.	8b/L
.	.	.	.	8g/J
.	.	.	.	[4dd\
.	.	8F\	.	.
=12	=12	=12	=12	=12
4E\	1r	4E\	4r	8dd\L]
.	.	.	.	8cc\J
4F\	.	4F\	4cc\	2cc\
2D\	.	4.D\	4.ff\	.
.	.	.	.	4b\
.	.	8D\	8dd\	.
=13	=13	=13	=13	=13
2C/	4r	2C/	4gg\	2cc\
.	4C/	.	8ff\L	.
.	.	.	8ee\J	.
4.F\	4.F\	2r	8aa\L	2r
.	.	.	8a\J	.
.	.	.	4dd\	.
8D\	8D\	.	.	.
=14	=14	=14	=14	=14
4G\	4G\	4r	4.b\	2r
4GG/	8F\L	4GG/	.	.
.	8E\J	.	8cc#\	.
4.D\	8D\L	4.D\	4dd\	4r
.	8E\	.	.	.
.	8F#\	.	4dd\	4dd\
8BB/	8G\J	8BB/	.	.
=15	=15	=15	=15	=15
4E\	2E\	4E\	2ee\	4.gg\
8D/L	.	8D/L	.	.
8C/J	.	8C/J	.	8ee\
4F\	2r	8F\L	2r	4aa\
.	.	8F\	.	.
8E\L	.	8E\	.	8gg\L
8D\J	.	8D\J	.	8ff\J
=16	=16	=16	=16	=16
4E\	1r	4E\	1r	8gg\L
.	.	.	.	8g\
8D/L	.	8D/L	.	8b\
8C/J	.	8C/J	.	8cc\J
4BB/	.	4BB/	.	8dd\L
.	.	.	.	8b\J
4C/	.	4C/	.	4ee\
=17	=17	=17	=17	=17
2AA/	2r	2AA/	4r	4cc\
.	.	.	4a/	8b/L
.	.	.	.	8a/J
2GG/	4r	2GG/	4.dd\	2b\
.	4G\	.	.	.
.	.	.	8b\	.
=18	=18	=18	=18	=18
4.C/	4.c\	1r	4ee\	1r
.	.	.	8dd\L	.
8AA/	8A\	.	8cc\J	.
2D\	8d\L	.	8dd\L	.
.	8D\	.	8ff\	.
.	8C\	.	8ee\	.
.	8BB\J	.	8dd\J	.
=19	=19	=19	=19	=19
2AA/	8AA/L	1r	8cc\L	1r
.	8C/	.	8dd\	.
.	8BB/	.	8ee\	.
.	8AA/J	.	8ff\J	.
2GG/	2GG/	.	8gg\L	.
.	.	.	8dd\J	.
.	.	.	[4gg\	.
=20	=20	=20	=20	=20
4.D\	4.D\	4r	4gg\]	2r
.	.	4D\	4ff#\	.
8C/	8C/	.	.	.
4.BB/	4.BB/	4.G\	2gg\	4r
.	.	.	.	4g/
8E\	8E\	8E\	.	.
=21	=21	=21	=21	=21
8AA/L	8AA/L	4A\	1r	4.cc\
8BB/	8BB/	.	.	.
8C/	8C/	8G\L	.	.
8D/J	8D/J	8F#\J	.	8a/
2GG/	2GG/	4G\	.	4dd\
.	.	4GG/	.	8cc\L
.	.	.	.	8b\J
=22	=22	=22	=22	=22
4.C/	1r	4.C/	2r	8ee\L
.	.	.	.	8cc\J
.	.	.	.	2gg\
8AA/	.	8AA/	.	.
2D\	.	4D\	4a/	.
.	.	4D\	[4dd\	4ff\
=23	=23	=23	=23	=23
2AA/	4r	2AA/	4dd\]	4ee\
.	4AA/	.	8cc\L	4.aa\
.	.	.	8b\J	.
4.D\	4.D\	2r	4a/	.
.	.	.	.	8gg\L
.	.	.	4dd\	8ff#\
8BB/	8BB/	.	.	8gg\J
=24	=24	=24	=24	=24
4E\	4E\	4r	4gg\	4.g/
8D/L	8D/L	4C/	8ff\L	.
8C/J	8C/J	.	8ee\J	8a\L
4.BB/	8BB/L	4.G\	4.dd\	8b\
.	8GG/	.	.	8cc\J
.	8BB/	.	.	[4dd\
8C/	8C/J	8E\	8ee\	.
=25	=25	=25	=25	=25
4D\	4D\	8A\L	4ff#\	4dd\]
.	.	8AA\	.	.
4GG/	4GG/	8BB\	2gg\	8cc\L
.	.	8C\J	.	8b\J
2D\	2D\	2D\	.	2a/
.	.	.	4ff#\	.
=26	=26	=26	=26	=26
1GG	1GG	1GG	1gg	1b
=27	=27	=27	=27	=27
1G	1r	2r	1r	1r
.	.	2G\	.	.
=28	=28	=28	=28	=28
1E	1r	2.E\	1r	1r
.	.	4E\	.	.
=29	=29	=29	=29	=29
2F#\	1r	2F#\	1r	1r
2G\	.	2G\	.	.
=30	=30	=30	=30	=30
1C	2r	1C	1r	1r
.	2C/	.	.	.
=31	=31	=31	=31	=31
1BB	2.BB/	1r	2r	1r
.	.	.	[2gg\	.
.	4BB/	.	.	.
=32	=32	=32	=32	=32
2C#/	2C#/	2r	4gg\]	1r
.	.	.	8ff\L	.
.	.	.	8ee\J	.
2D\	2D\	2D\	[2ff\	.
=33	=33	=33	=33	=33
1GG	1GG	2.G\	4ff\]	2r
.	.	.	8ee\L	.
.	.	.	8dd\J	.
.	.	.	4ee\	[2gg\
.	.	4G\	4b\	.
=34	=34	=34	=34	=34
2AA/	1r	2A\	2cc#\	4gg\]
.	.	.	.	8ff\L
.	.	.	.	8ee\J
2BB-/	.	2B-\	[2dd\	2dd\
=35	=35	=35	=35	=35
1AA	2r	1A	2dd\]	1ee
.	2A\	.	2cc#\	.
=36	=36	=36	=36	=36
1F#	1F#	1r	2r	1aa
.	.	.	2dd\	.
=37	=37	=37	=37	=37
2G\	2G\	1r	2.b\	1gg
[2E\	[2E\	.	.	.
.	.	.	4b\	.
=38	=38	=38	=38	=38
2E\]	4E\]	1r	2cc\	2r
.	8D/L	.	.	.
.	8C/J	.	.	.
2BB/	2BB/	.	2dd\	2gg\
=39	=39	=39	=39	=39
[1C	1C	2r	1ee	2.ee\
.	.	[2c\	.	.
.	.	.	.	4ee\
=40	=40	=40	=40	=40
2C/]	1r	4c\]	1dd	2ff#\
.	.	8B\L	.	.
.	.	8A\J	.	.
2BBn/	.	2G\	.	2gg\
=41	=41	=41	=41	=41
2F#\	1r	2F#\	1r	2aa\
2G\	.	2G\	.	[2gg\
=42	=42	=42	=42	=42
1D	1r	1D	1r	2gg\]
.	.	.	.	2ff#\
=43	=43	=43	=43	=43
*M3/1	*M3/1	*M3/1	*M3/1	*M3/1
1GG	1GG	1G	1b	1gg
1C	1C	1C	1.cc	1ee
1FF	1FF	1F	.	1aa
.	.	.	2dd\	.
=44	=44	=44	=44	=44
0.C	0C	0C	0ee	0gg
.	1r	1r	1r	1r
=45	=45	=45	=45	=45
1AA	1AA	1A	1aa	1cc#
1D	1D	1D	1aa	1dd
1GG	1GG	1G	1gg	1dd
=46	=46	=46	=46	=46
0.C	0.C	0.C	0.gg	0ee
.	.	.	.	1r
=47	=47	=47	=47	=47
1.c	0.r	1.c	0.r	2.ee\
.	.	.	.	4dd\
.	.	.	.	2ee\
2c\	.	2c\	.	2cc\
1B	.	1B	.	2dd\
.	.	.	.	2ee\
=48	=48	=48	=48	=48
1.A	0.r	2.A\	0.r	1.cc
.	.	4G\	.	.
.	.	2A\	.	.
2E\	.	2E\	.	2ee\
2F\	.	2F\	.	1dd
2G\	.	2G\	.	.
=49	=49	=49	=49	=49
0C	1.c	0C	2.ee\	0ee
.	.	.	4dd\	.
.	.	.	2ee\	.
.	2c\	.	2cc\	.
1G	1G	1r	2dd\	1r
.	.	.	2ee\	.
=50	=50	=50	=50	=50
0AA	0A	2AA/	0cc	1.aa
.	.	2BB/	.	.
.	.	2C/	.	.
.	.	2D\	.	2aa\
1E	1r	1E	1r	1gg#
=51	=51	=51	=51	=51
1.A	2.A\	0AA	1.ee	0aa
.	4G\	.	.	.
.	2A\	.	.	.
2E\	2E\	.	2ee\	.
2F\	2F\	1r	1dd	1r
2G\	2G\	.	.	.
=52	=52	=52	=52	=52
0C	0C	2C/	0.cc	2ee\
.	.	2D\	.	2ff\
.	.	2E\	.	2gg\
.	.	2F\	.	4ff\
.	.	.	.	4ee\
1G	1r	1G	.	1dd
=53	=53	=53	=53	=53
0C	2C/	0C	2ee\	0ee
.	2D\	.	2ff\	.
.	2E\	.	2gg\	.
.	2F\	.	4ff\	.
.	.	.	4ee\	.
1G	1G	1r	1dd	1r
=54	=54	=54	=54	=54
1.C	0C	2.c\	0ee	1.gg
.	.	4B\	.	.
.	.	2c\	.	.
2GG/	.	2G\	.	2gg\
2AA/	1r	2A\	1r	1ff
2BB/	.	2B\	.	.
=55	=55	=55	=55	=55
0C	0.r	1.c	0.r	2ee\
.	.	.	.	2ff\
.	.	.	.	2gg\
.	.	2A\	.	2cc\
1BB	.	2B\	.	2dd\
.	.	2c\	.	2ee\
=56	=56	=56	=56	=56
0D	2D\	0d	2ff\	0ff
.	2E\	.	2gg\	.
.	2F\	.	2aa\	.
.	2G\	.	4gg\	.
.	.	.	4ff\	.
1A	1A	1r	1ee	1r
=57	=57	=57	=57	=57
0D	0D	2.D\	0ff	1.dd
.	.	4E\	.	.
.	.	2F\	.	.
.	.	2D\	.	2dd\
1E	1r	2E\	1r	1cc
.	.	2F\	.	.
=58	=58	=58	=58	=58
0G	2GG/	0G	2gg\	0b
.	2AA/	.	4ff\	.
.	.	.	4ee\	.
.	2BB/	.	2dd\	.
.	2C/	.	2ee\	.
1D	1D	1r	1ff#	1r
=59	=59	=59	=59	=59
0GG	0GG	2GG/	0gg	2gg\
.	.	2AA/	.	4ff\
.	.	.	.	4ee\
.	.	2BB/	.	2dd\
.	.	2C/	.	2ee\
1D	1r	1D	1r	1ff#
=60	=60	=60	=60	=60
*met(C)	*met(C)	*met(C)	*met(C)	*met(C)
*M4/4	*M4/4	*M4/4	*M4/4	*M4/4
1GG	2r	1GG	2r	1gg
.	2G\	.	[2gg\	.
=61	=61	=61	=61	=61
1BB	1BB	1r	2gg\]	1r
.	.	.	2ff#\	.
=62	=62	=62	=62	=62
1FF#	1FF#	2r	2aa\	2r
.	.	2D\	2dd\	[2a/
=63	=63	=63	=63	=63
1GG	1GG	1GG	1dd	2a/]
.	.	.	.	2g/
=64	=64	=64	=64	=64
1EE	1r	1EE	1r	4g#/
.	.	.	.	2a/
.	.	.	.	4g#/
=65	=65	=65	=65	=65
2AA/	2r	1AA	1r	1a
2A\	4r	.	.	.
.	4A\	.	.	.
=66	=66	=66	=66	=66
2F#\	2F#\	1r	4r	1r
.	.	.	4dd\	.
2G\	4r	.	2b\	.
.	4G\	.	.	.
=67	=67	=67	=67	=67
2.C/	2C/	2r	4r	4r
.	.	.	4ee\	4gg\
.	2r	4r	2cc\	2ee\
4c\	.	4c\	.	.
=68	=68	=68	=68	=68
2A\	1r	2A\	4r	4r
.	.	.	4.ff\	4aa\
2B-\	.	4r	.	2dd\
.	.	.	8ff\	.
.	.	4B-\	[4dd\	.
=69	=69	=69	=69	=69
2G\	4r	2G\	4dd\]	4r
.	4G\	.	4.gg\	4dd\
2C/	2E\	4r	.	4ee\
.	.	.	8ff\	.
.	.	4C/	4ee\	[4cc\
=70	=70	=70	=70	=70
2.F\	4r	2F\	4.cc\	8cc\L]
.	.	.	.	8b\J
.	4.F\	.	.	4a/
.	.	.	16dd\LL	.
.	.	.	16ee\JJ	.
.	.	4r	8ff\L	2dd\
.	8F\	.	8aa\	.
4D\	4D\	4D\	8gg\	.
.	.	.	8ff\J	.
=71	=71	=71	=71	=71
2BB/	2BB/	8G\L	2gg\	4r
.	.	8A\	.	.
.	.	8G\	.	2gg\
.	.	8F\J	.	.
4E\	4r	2E\	2r	.
4C/	4C/	.	.	4aa\
=72	=72	=72	=72	=72
4.D\	4.D\	2r	2r	4ff\
.	.	.	.	4.dd\
8C/	8C/	.	.	.
2BB/	2BB/	4r	4r	.
.	.	.	.	16ee\LL
.	.	.	.	16ff#\JJ
.	.	[4G\	4dd\	[4gg\
=73	=73	=73	=73	=73
2C/	2C/	4G\]	4ee\	8gg\L]
.	.	.	.	8ff\J
.	.	4A\	4.cc\	4ee\
4.F\	2r	4.F\	.	2aa\
.	.	.	8a/	.
.	.	.	[4dd\	.
8D\	.	8D\	.	.
=74	=74	=74	=74	=74
4.G\	1r	4.G\	8dd\L]	4r
.	.	.	8cc\J	.
.	.	.	4.b\	4dd\
8F\	.	8F\	.	.
4E\	.	4.E\	.	4ee\
.	.	.	16cc\LL	.
.	.	.	16dd\JJ	.
4E\	.	.	[4ee\	[4cc\
.	.	16F\LL	.	.
.	.	16G\JJ	.	.
=75	=75	=75	=75	=75
2A\	4r	2A\	8ee\L]	8cc\L]
.	.	.	8dd\J	8b\J
.	4A\	.	4cc\	4a/
4B-\	4B-\	2r	2dd\	4ff\
4G\	4G\	.	.	4gg\
=76	=76	=76	=76	=76
2A\	4.A\	1r	1r	4ee\
.	.	.	.	4.aa\
.	8G\	.	.	.
4F\	4F\	.	.	.
.	.	.	.	8gg\
4D\	4D\	.	.	4ff\
=77	=77	=77	=77	=77
2E\	4.E\	1r	4r	4gg\
.	.	.	4gg\	4.ee\
.	8D\	.	.	.
4C/	4C/	.	4aa\	.
.	.	.	.	16dd\LL
.	.	.	.	16ee\JJ
[4D\	[4D\	.	[4ff\	4ff\
=78	=78	=78	=78	=78
8D/L]	8D/L]	1r	8ff\L]	4.dd\
8C/J	8C/J	.	16ee\L	.
.	.	.	16ff\JJ	.
4BB/	4BB/	.	4gg\	.
.	.	.	.	16cc\LL
.	.	.	.	16dd\JJ
4C/	4C/	.	4.ee\	4ee\
[4AA/	[4AA/	.	.	[4cc\
.	.	.	16dd\LL	.
.	.	.	16ee\JJ	.
=79	=79	=79	=79	=79
4AA/]	4AA/]	1r	4.ff\	8cc\L]
.	.	.	.	16b\L
.	.	.	.	16cc\JJ
4BB-/	4BB-/	.	.	2dd\
.	.	.	16gg\LL	.
.	.	.	16ff\JJ	.
4GG/	4GG/	.	2ee\	.
4AA/	4AA/	.	.	4cc#\
=80	=80	=80	=80	=80
1D	1DD	1D	1ff#	1dd
=81	=81	=81	=81	=81
2GG/	2GG/	2GG/	2gg\	4r
.	.	.	.	4dd\
4GG/	4GG/	4G\	4gg\	4b\
4GG/	4GG/	4G\	4gg\	8gg\L
.	.	.	.	8ff\J
=82	=82	=82	=82	=82
2C/	2C/	2C/	2gg\	2ee\
4r	4r	4r	4r	4r
4C/	4C/	4C/	4ee\	4gg\
=83	=83	=83	=83	=83
4FF/	4FF/	4F\	4a/	4aa\
4AA/	4AA/	8C/L	4a/	4ee\
.	.	8D/J	.	.
2EE/	2EE/	2E\	2g#/	2ee\
=84	=84	=84	=84	=84
2AA/	4r	1r	2ee\	1r
.	8AA/L	.	.	.
.	8BB/J	.	.	.
4C/	8C\L	.	4ee\	.
.	8D\	.	.	.
4E\	8E\	.	4ee\	.
.	8F\J	.	.	.
=85	=85	=85	=85	=85
4G\	4G\	1r	4dd\	1r
8A\L	8A\L	.	8cc\L	.
8B\J	8B\J	.	8dd\J	.
4c\	4c\	.	4ee\	.
4B\	4B\	.	4gg\	.
=86	=86	=86	=86	=86
4A\	4A\	2r	4gg\	2r
4D\	4D\	.	4ff#\	.
2G\	2G\	2G\	2gg\	4r
.	.	.	.	8g/L
.	.	.	.	8a/J
=87	=87	=87	=87	=87
4G\	1r	4G\	1r	8b\L
.	.	.	.	8cc\
4G\	.	4G\	.	8dd\
.	.	.	.	8ee\J
4F\	.	4F\	.	4ff\
8E\L	.	8E\L	.	4gg\
8F\J	.	8F\J	.	.
=88	=88	=88	=88	=88
4G\	1r	4G\	1r	4b-\
4A\	.	4A\	.	4a/
4B-\	.	4B-\	.	2g/
4c\	.	4c\	.	.
=89	=89	=89	=89	=89
2F\	4r	1F	2aa\	1a
.	8FF/L	.	.	.
.	8GG/J	.	.	.
4AA/	8AA/L	.	4aa\	.
.	8BB/	.	.	.
4C/	8C/	.	4aa\	.
.	8D/J	.	.	.
=90	=90	=90	=90	=90
4E\	4E\	1r	4gg\	1r
8F\L	8F\L	.	4ff\	.
8G\J	8G\J	.	.	.
4A\	4A\	.	4ee\	.
4B-\	4B-\	.	4dd\	.
=91	=91	=91	=91	=91
4G\	4G\	2r	4dd\	1r
4A\	4A\	.	4cc#\	.
2D\	2D\	4r	2dd\	.
.	.	8D\L	.	.
.	.	8E\J	.	.
=92	=92	=92	=92	=92
2F\	1r	2F\	4r	4r
.	.	.	4a/	8a/L
.	.	.	.	8b/J
4AA/	.	8AA/L	4a/	8cc\L
.	.	8BB/	.	8dd\
4C/	.	8C/	4a/	8ee\
.	.	8D/J	.	8ff\J
=93	=93	=93	=93	=93
4E\	1r	8E\L	2g/	4gg\
.	.	8F\J	.	.
4G\	.	4G\	.	4dd\
4D\	.	8D\L	4r	4dd\
.	.	8E\	.	.
4F\	.	8F\	4ff\	4dd\
.	.	8G\J	.	.
=94	=94	=94	=94	=94
4A\	1r	8A\L	4ff\	4cc\
.	.	8B\J	.	.
4c\	.	4c\	4ee\	2cc\
2G\	.	2G\	2dd\	.
.	.	.	.	4b\
=95	=95	=95	=95	=95
1C	2C/	1C	4r	1cc
.	.	.	8cc\L	.
.	.	.	8dd\J	.
.	4C/	.	8ee\L	.
.	.	.	8ff\	.
.	4C/	.	8gg\	.
.	.	.	8aa\J	.
=96	=96	=96	=96	=96
4BB/	4BB/	1r	4r	1r
8AA/L	8AA/L	.	8cc\L	.
8BB/J	8BB/J	.	8dd\J	.
2C/	2C/	.	8ee\L	.
.	.	.	8ff\J	.
.	.	.	4gg\	.
=97	=97	=97	=97	=97
2D\	2D\	1r	4r	1r
.	.	.	8d/L	.
.	.	.	8e/J	.
4D\	4D\	.	8f/L	.
.	.	.	8g/	.
4D\	4D\	.	8a/	.
.	.	.	8b/J	.
=98	=98	=98	=98	=98
4C/	4C/	1r	4cc\	1r
8BB/L	8BB/L	.	8dd\L	.
8C/J	8C/J	.	8ee\J	.
2D\	4D\	.	4ff\	.
.	8C/L	.	8a/L	.
.	8BB/J	.	8b/J	.
=99	=99	=99	=99	=99
4AA/	4AA/	1r	8cc\L	1r
.	.	.	8dd\J	.
4EE/	4EE/	.	4ee\	.
4FF/	4FF/	.	4.dd\	.
4GG/	4GG/	.	.	.
.	.	.	8ee\	.
=100	=100	=100	=100	=100
1C	1C	4r	1cc	2ee\
.	.	8C/L	.	.
.	.	8D/J	.	.
.	.	8E\L	.	4ee\
.	.	8F\	.	.
.	.	8G\	.	4ee\
.	.	8A\J	.	.
=101	=101	=101	=101	=101
2BB/	1r	4B\	1r	4dd\
.	.	8A\L	.	8cc\L
.	.	8B\J	.	8dd\J
2C/	.	4c\	.	4ee\
.	.	4C/	.	4ee\
=102	=102	=102	=102	=102
1G	2G\	2G\	4r	1dd
.	.	.	8g/L	.
.	.	.	8a/J	.
.	4G\	2r	8b\L	.
.	.	.	8cc\	.
.	4G\	.	8dd\	.
.	.	.	8ee\J	.
=103	=103	=103	=103	=103
4F\	4F\	2r	4ff\	4r
8E\L	8E\L	.	4gg\	8g/L
8F\J	8F\J	.	.	8a/J
4G\	4G\	4G\	2dd\	8b\L
.	.	.	.	8cc\
4GG/	4GG/	8G\L	.	8dd\
.	.	8G\J	.	8ee\J
=104	=104	=104	=104	=104
1D	2D\	4F#\	2r	8ff#\L
.	.	.	.	8gg\J
.	.	8D\L	.	4aa\
.	.	8E\J	.	.
.	2D\	8F#\L	4r	[2dd\
.	.	8G\J	.	.
.	.	4A\	4dd\	.
=105	=105	=105	=105	=105
4BB/	4BB/	8G/L	4.dd\	4dd\]
.	.	8GG/	.	.
4GG/	4GG/	8BB/	.	2gg\
.	.	8C/J	16cc\LL	.
.	.	.	16b\JJ	.
2D\	2D\	2D\	2a/	.
.	.	.	.	4ff#\
=106	=106	=106	=106	=106
0GG	0G	0GG	0b	0gg
==	==	==	==	==
*-	*-	*-	*-	*-
!!!ENC: Craig Stuart Sapp
!!!END: 2004/12/14/
